; generated by PrusaSlicer 2.3.1+win64 on 2021-05-07 at 11:51:30 UTC

; 

; external perimeters extrusion width = 0.45mm
; perimeters extrusion width = 0.45mm
; infill extrusion width = 0.45mm
; solid infill extrusion width = 0.45mm
; top infill extrusion width = 0.40mm
; support material extrusion width = 0.35mm
; first layer extrusion width = 0.42mm

M73 P0 R23
M73 Q0 S23
M201 X1000 Y1000 Z200 E5000 ; sets maximum accelerations, mm/sec^2
M203 X200 Y200 Z12 E120 ; sets maximum feedrates, mm/sec
M204 P1250 R1250 T1250 ; sets acceleration (P, T) and retract acceleration (R), mm/sec^2
M205 X8.00 Y8.00 Z0.40 E4.50 ; sets the jerk limits, mm/sec
M205 S0 T0 ; sets the minimum extruding and travel feed rate, mm/sec
M107
;TYPE:Custom
M862.3 P "MK3MMU2" ; printer model check
M862.1 P0.4 ; nozzle diameter check
M115 U3.9.3 ; tell printer latest fw version
G90 ; use absolute coordinates
M83 ; extruder relative mode
M104 S215 ; set extruder temp
M140 S60 ; set bed temp
Tx
M190 S60 ; wait for bed temp
M109 S215 ; wait for extruder temp
G28 W ; home all without mesh bed level
G80 ; mesh bed leveling

;go outside print area
G1 Y-3.0 F1000.0
G1 Z0.4 F1000.0
; select extruder
Tc
; purge line
G1 X55.0 E8.0 F2000.0
G1 Z0.3 F1000.0
G92 E0.0
G1 X240.0 E25.0 F2200.0
G1 Y-2.0 F1000.0
G1 X55.0 E25 F1400.0
M73 P1 R22
M73 Q1 S23
G1 Z0.20 F1000.0
G1 X5.0 E4.0 F1000.0

M221 S95
G92 E0.0

; Don't change E values below. Excessive value can damage the printer.
M907 E430 ; set extruder motor current
G21 ; set units to millimeters
G90 ; use absolute coordinates
M83 ; use relative distances for extrusion
M900 K0.05 ; Filament gcode LA 1.5
M900 K30 ; Filament gcode LA 1.0
;LAYER_CHANGE
;Z:0.2
;HEIGHT:0.2
;BEFORE_LAYER_CHANGE
G92 E0.0
;0.2


G1 E-0.80000 F2100.000
G1 Z0.400 F10800.000
;AFTER_LAYER_CHANGE
;0.2
G1 X115.701 Y93.438
M73 Q1 S22
G1 Z0.200
G1 E0.80000 F2100.000
M204 S1000
;TYPE:Skirt
;WIDTH:0.42
G1 F1200.000
G1 X116.126 Y93.070 E0.01763
G1 X116.651 Y92.803 E0.01846
G1 X117.225 Y92.673 E0.01846
G1 X143.526 Y90.385 E0.82775
G1 X154.263 Y90.209 E0.33671
G1 X158.992 Y90.388 E0.14835
G1 X159.513 Y90.493 E0.01668
G1 X159.995 Y90.710 E0.01657
G1 X160.409 Y91.020 E0.01621
G1 X162.964 Y93.486 E0.11135
G1 X165.188 Y95.956 E0.10420
G1 X165.470 Y96.421 E0.01704
G1 X165.639 Y96.937 E0.01704
G1 X165.687 Y112.852 E0.49900
G1 X165.619 Y113.410 E0.01763
G1 X165.405 Y113.971 E0.01882
G1 X165.059 Y114.457 E0.01870
G1 X160.207 Y119.305 E0.21507
G1 X159.599 Y119.600 E0.02119
G1 X158.933 Y119.712 E0.02119
G1 X147.473 Y119.882 E0.35933
G1 X143.460 Y119.708 E0.12594
G1 X117.183 Y117.492 E0.82684
G1 X116.686 Y117.379 E0.01597
G1 X116.225 Y117.163 E0.01597
G1 X115.820 Y116.853 E0.01597
G1 X115.491 Y116.465 E0.01597
G1 X115.193 Y115.850 E0.02142
G1 X115.082 Y115.176 E0.02142
G1 X115.082 Y94.974 E0.63342
G1 X115.164 Y94.418 E0.01763
G1 X115.374 Y93.896 E0.01763
G1 X115.666 Y93.487 E0.01575
; printing object joystick_hmatnik.stl id:1 copy 0
;WIPE_START
G1 F8640.000
G1 X116.126 Y93.070 E-0.14337
G1 X116.651 Y92.803 E-0.13597
G1 X117.225 Y92.673 E-0.13597
G1 X118.713 Y92.544 E-0.34469
;WIPE_END
G1 E-0.04000 F2100.000
G1 Z0.600 F10800.000
G1 X139.177 Y112.848
M73 Q2 S22
G1 Z0.200
G1 E0.80000 F2100.000
;TYPE:Support material
G1 F1200.000
G1 X139.177 Y97.413 E0.48396
M73 P2 R22
G1 X139.931 Y97.413 E0.02365
G1 X139.931 Y112.678 E0.47864
G1 X140.685 Y112.678 E0.02365
G1 X140.685 Y97.413 E0.47864
G1 X141.282 Y97.413 E0.01872
G1 X141.282 Y95.084 E0.07301
G1 X141.439 Y95.084 E0.00493
G1 X141.439 Y115.007 E0.62466
G1 X142.193 Y115.007 E0.02365
G1 X142.193 Y95.084 E0.62466
G1 X142.947 Y95.084 E0.02365
G1 X142.947 Y115.007 E0.62466
G1 X143.610 Y115.007 E0.02079
G1 X143.610 Y117.336 E0.07301
G1 X143.702 Y117.336 E0.00286
G1 X143.702 Y92.756 E0.77068
G1 X144.456 Y92.756 E0.02365
G1 X144.456 Y117.336 E0.77068
G1 X145.210 Y117.336 E0.02365
G1 X145.210 Y92.756 E0.77068
G1 X145.964 Y92.756 E0.02365
G1 X145.964 Y117.336 E0.77068
G1 X146.718 Y117.336 E0.02365
G1 X146.718 Y92.756 E0.77068
G1 X147.472 Y92.756 E0.02365
G1 X147.472 Y117.505 E0.77600
;WIPE_START
G1 F8640.000
G1 X147.472 Y114.214 E-0.76000
;WIPE_END
M73 Q3 S22
G1 E-0.04000 F2100.000
G1 Z0.600 F10800.000
M73 P3 R22
G1 X152.751 Y105.929
G1 Z0.200
G1 E0.80000 F2100.000
G1 F1200.000
G1 X152.751 Y104.586 E0.04210
G1 X152.707 Y104.439 E0.00480
G1 X152.561 Y104.165 E0.00974
G1 X152.364 Y103.925 E0.00974
G1 X152.123 Y103.728 E0.00974
G1 X151.997 Y103.661 E0.00448
G1 X151.997 Y106.431 E0.08684
G1 X151.849 Y106.510 E0.00526
G1 X151.552 Y106.600 E0.00974
G1 X151.243 Y106.630 E0.00974
G1 X151.243 Y105.280 E0.04233
G1 X151.243 Y104.811 F10800.000
G1 F1200.000
G1 X151.243 Y103.461 E0.04233
G1 X150.934 Y103.492 E0.00974
G1 X150.637 Y103.582 E0.00974
G1 X150.489 Y103.661 E0.00526
G1 X150.489 Y106.431 E0.08684
G1 X150.363 Y106.363 E0.00448
G1 X150.123 Y106.166 E0.00974
G1 X149.926 Y105.926 E0.00974
G1 X149.779 Y105.652 E0.00974
G1 X149.735 Y105.505 E0.00480
G1 X149.735 Y104.163 E0.04210
;WIPE_START
G1 F8640.000
G1 X149.735 Y105.505 E-0.31007
G1 X149.779 Y105.652 E-0.03537
G1 X149.926 Y105.926 E-0.07172
G1 X150.123 Y106.166 E-0.07172
G1 X150.363 Y106.363 E-0.07172
G1 X150.489 Y106.431 E-0.03302
G1 X150.489 Y105.710 E-0.16637
;WIPE_END
G1 E-0.04000 F2100.000
G1 Z0.600 F10800.000
G1 X154.260 Y92.586
G1 Z0.200
G1 E0.80000 F2100.000
G1 F1200.000
G1 X154.260 Y103.448 E0.34057
G1 X153.962 Y102.982 E0.01735
G1 X153.620 Y102.595 E0.01618
G1 X153.506 Y102.499 E0.00469
G1 X153.506 Y92.756 E0.30548
G1 X152.751 Y92.756 E0.02365
G1 X152.751 Y101.986 E0.28941
G1 X152.209 Y101.772 E0.01830
G1 X151.997 Y101.726 E0.00679
G1 X151.997 Y92.756 E0.28124
G1 X151.243 Y92.756 E0.02365
G1 X151.243 Y101.639 E0.27853
G1 X151.089 Y101.636 E0.00483
G1 X150.489 Y101.720 E0.01900
G1 X150.489 Y92.756 E0.28108
G1 X149.735 Y92.756 E0.02365
G1 X149.735 Y101.994 E0.28965
G1 X149.522 Y102.098 E0.00743
G1 X149.097 Y102.391 E0.01618
G1 X148.981 Y102.499 E0.00499
G1 X148.981 Y92.756 E0.30550
G1 X148.226 Y92.756 E0.02365
G1 X148.226 Y103.469 E0.33590
G1 X148.096 Y103.723 E0.00895
G1 X147.933 Y104.213 E0.01618
G1 X147.839 Y104.788 E0.01827
G1 X147.842 Y105.337 E0.01722
G1 X147.925 Y105.846 E0.01618
G1 X148.096 Y106.368 E0.01722
G1 X148.226 Y106.622 E0.00895
G1 X148.226 Y117.336 E0.33590
G1 X148.981 Y117.336 E0.02365
G1 X148.981 Y107.592 E0.30549
G1 X149.097 Y107.700 E0.00499
G1 X149.522 Y107.994 E0.01618
G1 X149.735 Y108.098 E0.00743
G1 X149.735 Y117.336 E0.28965
G1 X150.489 Y117.336 E0.02365
G1 X150.489 Y108.371 E0.28108
G1 X151.089 Y108.456 E0.01900
G1 X151.243 Y108.452 E0.00483
G1 X151.243 Y117.336 E0.27853
G1 X151.997 Y117.336 E0.02365
G1 X151.997 Y108.366 E0.28124
G1 X152.209 Y108.320 E0.00679
G1 X152.751 Y108.105 E0.01830
G1 X152.751 Y117.336 E0.28941
G1 X153.506 Y117.336 E0.02365
G1 X153.506 Y107.593 E0.30548
G1 X153.620 Y107.496 E0.00469
G1 X153.962 Y107.110 E0.01618
G1 X154.260 Y106.643 E0.01735
G1 X154.260 Y117.336 E0.33525
G1 X155.014 Y117.336 E0.02365
G1 X155.014 Y92.756 E0.77068
G1 X155.768 Y92.756 E0.02365
G1 X155.768 Y117.336 E0.77068
M73 P4 R22
M73 Q4 S22
G1 X156.522 Y117.336 E0.02365
G1 X156.522 Y92.756 E0.77068
G1 X157.276 Y92.756 E0.02365
G1 X157.276 Y117.336 E0.77068
G1 X158.031 Y117.336 E0.02365
G1 X158.031 Y92.756 E0.77068
G1 X158.785 Y92.756 E0.02365
G1 X158.785 Y117.336 E0.77068
G1 X158.876 Y117.336 E0.00286
G1 X158.876 Y115.007 E0.07301
G1 X159.539 Y115.007 E0.02079
G1 X159.539 Y95.084 E0.62466
G1 X160.293 Y95.084 E0.02365
G1 X160.293 Y115.007 E0.62466
G1 X161.047 Y115.007 E0.02365
G1 X161.047 Y95.084 E0.62466
G1 X161.204 Y95.084 E0.00493
G1 X161.204 Y97.413 E0.07301
G1 X161.801 Y97.413 E0.01872
G1 X161.801 Y112.678 E0.47864
G1 X162.556 Y112.678 E0.02365
G1 X162.556 Y97.413 E0.47864
G1 X163.310 Y97.413 E0.02365
G1 X163.310 Y112.848 E0.48396
;WIPE_START
G1 F8640.000
G1 X163.310 Y109.557 E-0.76000
;WIPE_END
G1 E-0.04000 F2100.000
G1 Z0.600 F10800.000
G1 X153.163 Y106.328
G1 Z0.200
G1 E0.80000 F2100.000
;TYPE:External perimeter
G1 F1200.000
G1 X152.876 Y106.679 E0.01419
G1 X152.526 Y106.966 E0.01421
G1 X152.126 Y107.179 E0.01420
G1 X151.694 Y107.309 E0.01417
G1 X151.244 Y107.355 E0.01418
G1 X150.793 Y107.311 E0.01420
G1 X150.359 Y107.179 E0.01421
G1 X149.961 Y106.965 E0.01419
G1 X149.611 Y106.678 E0.01417
G1 X149.323 Y106.329 E0.01419
G1 X149.109 Y105.929 E0.01421
G1 X148.979 Y105.496 E0.01420
G1 X148.935 Y105.046 E0.01418
G1 X148.979 Y104.596 E0.01418
G1 X149.109 Y104.162 E0.01420
G1 X149.323 Y103.762 E0.01421
G1 X149.611 Y103.413 E0.01419
G1 X149.961 Y103.127 E0.01417
G1 X150.360 Y102.912 E0.01422
G1 X150.813 Y102.778 E0.01481
G1 X151.244 Y102.737 E0.01356
G1 X151.694 Y102.782 E0.01418
G1 X152.126 Y102.913 E0.01417
G1 X152.526 Y103.125 E0.01420
G1 X152.876 Y103.413 E0.01421
G1 X153.163 Y103.764 E0.01419
G1 X153.375 Y104.162 E0.01417
G1 X153.508 Y104.595 E0.01418
G1 X153.553 Y105.046 E0.01421
G1 X153.508 Y105.497 E0.01421
G1 X153.375 Y105.929 E0.01418
G1 X153.191 Y106.275 E0.01229
G1 X153.340 Y106.686 F10800.000
G1 X153.389 Y106.659
G1 F1200.000
G1 X153.104 Y106.984 E0.01355
G1 X152.770 Y107.257 E0.01351
G1 X152.395 Y107.471 E0.01354
G1 X151.990 Y107.623 E0.01357
G1 X151.566 Y107.710 E0.01357
G1 X151.134 Y107.729 E0.01357
G1 X150.705 Y107.679 E0.01353
G1 X150.292 Y107.558 E0.01352
G1 X149.902 Y107.371 E0.01356
G1 X149.546 Y107.124 E0.01357
G1 X149.233 Y106.825 E0.01357
G1 X148.972 Y106.481 E0.01355
G1 X148.770 Y106.097 E0.01361
G1 X148.636 Y105.690 E0.01343
G1 X148.568 Y105.262 E0.01357
G1 X148.568 Y104.829 E0.01357
G1 X148.636 Y104.402 E0.01358
G1 X148.771 Y103.992 E0.01352
G1 X148.972 Y103.611 E0.01351
G1 X149.233 Y103.266 E0.01355
G1 X149.546 Y102.967 E0.01357
G1 X149.902 Y102.721 E0.01357
G1 X150.292 Y102.534 E0.01356
G1 X150.705 Y102.413 E0.01352
G1 X151.138 Y102.362 E0.01366
G1 X151.566 Y102.381 E0.01342
G1 X151.990 Y102.468 E0.01358
G1 X152.395 Y102.620 E0.01358
G1 X152.770 Y102.835 E0.01354
G1 X153.104 Y103.107 E0.01352
G1 X153.391 Y103.434 E0.01362
G1 X153.620 Y103.798 E0.01349
G1 X153.789 Y104.196 E0.01358
G1 X153.894 Y104.616 E0.01357
G1 X153.931 Y105.046 E0.01352
G1 X153.894 Y105.475 E0.01350
G1 X153.781 Y105.917 E0.01430
G1 X153.620 Y106.293 E0.01283
G1 X153.421 Y106.609 E0.01170
G1 X152.992 Y106.612 F10800.000
; stop printing object joystick_hmatnik.stl id:1 copy 0
; printing object prepinac.stl id:0 copy 0
;WIPE_START
G1 F8640.000
G1 X153.104 Y106.984 E-0.11347
G1 X152.770 Y107.257 E-0.09952
G1 X152.395 Y107.471 E-0.09969
G1 X151.990 Y107.623 E-0.09993
G1 X151.566 Y107.710 E-0.09994
G1 X151.134 Y107.729 E-0.09990
G1 X150.705 Y107.679 E-0.09961
G1 X150.506 Y107.620 E-0.04793
;WIPE_END
M73 P5 R22
G1 E-0.04000 F2100.000
G1 Z0.600 F10800.000
M73 Q5 S22
G1 X127.262 Y102.756
G1 Z0.200
G1 E0.80000 F2100.000
;TYPE:Support material
G1 F1200.000
G1 X127.262 Y95.039 E0.24197
G1 X126.508 Y95.039 E0.02365
G1 X126.508 Y102.586 E0.23665
G1 X125.754 Y102.586 E0.02365
G1 X125.754 Y95.039 E0.23665
G1 X125.000 Y95.039 E0.02365
G1 X125.000 Y102.586 E0.23665
G1 X124.246 Y102.586 E0.02365
G1 X124.246 Y95.039 E0.23665
G1 X123.492 Y95.039 E0.02365
G1 X123.492 Y102.586 E0.23665
G1 X122.738 Y102.586 E0.02365
G1 X122.738 Y95.039 E0.23665
M73 P5 R21
G1 X121.983 Y95.039 E0.02365
G1 X121.983 Y102.586 E0.23665
G1 X121.229 Y102.586 E0.02365
G1 X121.229 Y95.039 E0.23665
G1 X120.475 Y95.039 E0.02365
G1 X120.475 Y102.586 E0.23665
G1 X119.721 Y102.586 E0.02365
G1 X119.721 Y95.039 E0.23665
G1 X118.967 Y95.039 E0.02365
G1 X118.967 Y102.586 E0.23665
G1 X118.213 Y102.586 E0.02365
G1 X118.213 Y95.039 E0.23665
G1 X117.458 Y95.039 E0.02365
G1 X117.458 Y102.756 E0.24197
;WIPE_START
G1 F8640.000
G1 X117.458 Y99.465 E-0.76000
;WIPE_END
G1 E-0.04000 F2100.000
G1 Z0.600 F10800.000
G1 X117.458 Y115.131
G1 Z0.200
G1 E0.80000 F2100.000
G1 F1200.000
G1 X117.458 Y107.414 E0.24197
G1 X118.213 Y107.414 E0.02365
G1 X118.213 Y114.961 E0.23665
G1 X118.967 Y114.961 E0.02365
G1 X118.967 Y107.414 E0.23665
G1 X119.721 Y107.414 E0.02365
G1 X119.721 Y114.961 E0.23665
G1 X120.475 Y114.961 E0.02365
G1 X120.475 Y107.414 E0.23665
G1 X121.229 Y107.414 E0.02365
G1 X121.229 Y114.961 E0.23665
G1 X121.983 Y114.961 E0.02365
G1 X121.983 Y107.414 E0.23665
M73 Q5 S21
G1 X122.738 Y107.414 E0.02365
G1 X122.738 Y114.961 E0.23665
G1 X123.492 Y114.961 E0.02365
G1 X123.492 Y107.414 E0.23665
G1 X124.246 Y107.414 E0.02365
G1 X124.246 Y114.961 E0.23665
G1 X125.000 Y114.961 E0.02365
G1 X125.000 Y107.414 E0.23665
G1 X125.754 Y107.414 E0.02365
G1 X125.754 Y114.961 E0.23665
G1 X126.508 Y114.961 E0.02365
G1 X126.508 Y107.414 E0.23665
G1 X127.262 Y107.414 E0.02365
G1 X127.262 Y115.131 E0.24197
;WIPE_START
G1 F8640.000
G1 X127.262 Y111.840 E-0.76000
;WIPE_END
G1 E-0.04000 F2100.000
G1 Z0.600 F10800.000
G1 X131.336 Y105.836
G1 Z0.200
G1 E0.80000 F2100.000
;TYPE:Perimeter
G1 F1200.000
G1 X118.664 Y105.836 E0.39731
M73 P6 R21
M73 Q6 S21
G1 X118.664 Y104.164 E0.05241
G1 X131.336 Y104.164 E0.39731
G1 X131.336 Y105.776 E0.05053
G1 X131.713 Y106.213 F10800.000
G1 F1200.000
G1 X118.287 Y106.213 E0.42096
G1 X118.287 Y103.787 E0.07606
G1 X131.713 Y103.787 E0.42096
G1 X131.713 Y106.153 E0.07418
G1 X132.090 Y106.590 F10800.000
;TYPE:External perimeter
G1 F1200.000
G1 X117.910 Y106.590 E0.44460
G1 X117.910 Y103.410 E0.09971
G1 X132.090 Y103.410 E0.44460
G1 X132.090 Y106.530 E0.09783
G1 X131.691 Y106.561 F10800.000
;WIPE_START
G1 F8640.000
G1 X128.799 Y106.544 E-0.76000
;WIPE_END
G1 E-0.04000 F2100.000
G1 Z0.600 F10800.000
G1 X130.455 Y104.277
G1 Z0.200
G1 E0.80000 F2100.000
;TYPE:Solid infill
;WIDTH:0.422754
G1 F1200.000
G1 X131.053 Y104.876 E0.02673
G1 X131.053 Y105.413 E0.01697
G1 X130.087 Y104.447 E0.04314
G1 X129.550 Y104.447 E0.01697
G1 X130.656 Y105.553 E0.04940
G1 X130.119 Y105.553 E0.01697
G1 X129.013 Y104.447 E0.04940
G1 X128.476 Y104.447 E0.01697
G1 X129.582 Y105.553 E0.04940
G1 X129.045 Y105.553 E0.01697
G1 X127.938 Y104.447 E0.04940
G1 X127.401 Y104.447 E0.01697
G1 X128.507 Y105.553 E0.04940
G1 X127.970 Y105.553 E0.01697
G1 X126.864 Y104.447 E0.04940
G1 X126.327 Y104.447 E0.01697
G1 X127.433 Y105.553 E0.04940
G1 X126.896 Y105.553 E0.01697
G1 X125.790 Y104.447 E0.04940
G1 X125.253 Y104.447 E0.01697
G1 X126.359 Y105.553 E0.04940
G1 X125.822 Y105.553 E0.01697
G1 X124.715 Y104.447 E0.04940
G1 X124.178 Y104.447 E0.01697
G1 X125.284 Y105.553 E0.04940
G1 X124.747 Y105.553 E0.01697
G1 X123.641 Y104.447 E0.04940
G1 X123.104 Y104.447 E0.01697
G1 X124.210 Y105.553 E0.04940
G1 X123.673 Y105.553 E0.01697
G1 X122.567 Y104.447 E0.04940
G1 X122.030 Y104.447 E0.01697
G1 X123.136 Y105.553 E0.04940
G1 X122.599 Y105.553 E0.01697
G1 X121.492 Y104.447 E0.04940
G1 X120.955 Y104.447 E0.01697
G1 X122.061 Y105.553 E0.04940
G1 X121.524 Y105.553 E0.01697
G1 X120.418 Y104.447 E0.04940
G1 X119.881 Y104.447 E0.01697
G1 X120.987 Y105.553 E0.04940
G1 X120.450 Y105.553 E0.01697
G1 X119.344 Y104.447 E0.04940
G1 X118.947 Y104.447 E0.01253
G1 X118.947 Y104.587 E0.00443
G1 X119.913 Y105.553 E0.04314
G1 X119.376 Y105.553 E0.01697
G1 X118.777 Y104.955 E0.02672
; stop printing object prepinac.stl id:0 copy 0
M106 S84.15
;LAYER_CHANGE
;Z:0.3
;HEIGHT:0.1
;BEFORE_LAYER_CHANGE
G92 E0.0
;0.3


;WIPE_START
G1 F8640.000
G1 X119.376 Y105.553 E-0.19537
G1 X119.913 Y105.553 E-0.12403
G1 X118.947 Y104.587 E-0.31537
G1 X118.947 Y104.447 E-0.03240
G1 X119.344 Y104.447 E-0.09163
G1 X119.347 Y104.451 E-0.00120
;WIPE_END
G1 E-0.04000 F2100.000
G1 Z0.600 F10800.000
;AFTER_LAYER_CHANGE
;0.3
M104 S210 ; set temperature
G1 X115.193 Y115.850
G1 Z0.300
G1 E0.80000 F2100.000
;TYPE:Skirt
;WIDTH:0.42
G1 F1423
G1 X115.082 Y115.176 E0.01132
G1 X115.082 Y94.974 E0.33473
G1 X115.164 Y94.418 E0.00932
G1 X115.374 Y93.896 E0.00932
G1 X115.701 Y93.438 E0.00932
G1 X116.126 Y93.070 E0.00932
G1 X116.651 Y92.803 E0.00976
G1 X117.225 Y92.673 E0.00976
G1 X143.526 Y90.385 E0.43743
G1 X154.263 Y90.209 E0.17794
G1 X158.992 Y90.388 E0.07840
G1 X159.513 Y90.493 E0.00882
G1 X159.995 Y90.710 E0.00875
G1 X160.409 Y91.020 E0.00857
G1 X162.964 Y93.486 E0.05884
G1 X165.188 Y95.956 E0.05506
G1 X165.470 Y96.421 E0.00901
G1 X165.639 Y96.937 E0.00901
G1 X165.687 Y112.852 E0.26370
G1 X165.619 Y113.410 E0.00932
