; generated by PrusaSlicer 2.3.1+win64 on 2021-05-07 at 12:01:03 UTC

; 

; external perimeters extrusion width = 0.45mm
; perimeters extrusion width = 0.45mm
; infill extrusion width = 0.45mm
; solid infill extrusion width = 0.45mm
; top infill extrusion width = 0.40mm
; support material extrusion width = 0.35mm
; first layer extrusion width = 0.42mm

M73 P0 R63
M73 Q0 S64
M201 X1000 Y1000 Z200 E5000 ; sets maximum accelerations, mm/sec^2
M203 X200 Y200 Z12 E120 ; sets maximum feedrates, mm/sec
M204 P1250 R1250 T1250 ; sets acceleration (P, T) and retract acceleration (R), mm/sec^2
M205 X8.00 Y8.00 Z0.40 E4.50 ; sets the jerk limits, mm/sec
M205 S0 T0 ; sets the minimum extruding and travel feed rate, mm/sec
M107
;TYPE:Custom
M862.3 P "MK3" ; printer model check
M862.1 P0.4 ; nozzle diameter check
M115 U3.9.3 ; tell printer latest fw version
G90 ; use absolute coordinates
M83 ; extruder relative mode
M104 S215 ; set extruder temp
M140 S60 ; set bed temp
M190 S60 ; wait for bed temp
M109 S215 ; wait for extruder temp
G28 W ; home all without mesh bed level
G80 ; mesh bed leveling
G1 Y-3.0 F1000.0 ; go outside print area
G92 E0.0
G1 X60.0 E9.0 F1000.0 ; intro line
G1 X100.0 E12.5 F1000.0 ; intro line
G92 E0.0
M221 S95

; Don't change E values below. Excessive value can damage the printer.
M907 E430 ; set extruder motor current
G21 ; set units to millimeters
G90 ; use absolute coordinates
M83 ; use relative distances for extrusion
M900 K0.05 ; Filament gcode LA 1.5
M900 K30 ; Filament gcode LA 1.0
;LAYER_CHANGE
;Z:0.2
;HEIGHT:0.2
;BEFORE_LAYER_CHANGE
G92 E0.0
;0.2


G1 E-0.80000 F2100.000
G1 Z0.400 F10800.000
;AFTER_LAYER_CHANGE
;0.2
G1 X103.405 Y70.281
G1 Z0.200
G1 E0.80000 F2100.000
M204 S1000
;TYPE:Skirt
;WIDTH:0.42
G1 F1200.000
G1 X104.306 Y70.032 E0.02931
G1 X114.285 Y70.026 E0.31288
G1 X154.939 Y74.743 E1.28324
G1 X155.445 Y74.952 E0.01716
G1 X155.890 Y75.270 E0.01716
G1 X165.797 Y84.598 E0.42662
G1 X166.139 Y85.043 E0.01763
G1 X179.729 Y108.018 E0.83693
G1 X179.965 Y108.565 E0.01870
G1 X182.267 Y126.242 E0.55891
G1 X182.267 Y137.214 E0.34404
G1 X182.058 Y138.064 E0.02743
G1 X181.556 Y138.780 E0.02743
G1 X180.856 Y139.255 E0.02649
G1 X180.032 Y139.454 E0.02661
G1 X170.047 Y139.458 E0.31304
G1 X151.386 Y138.946 E0.58533
G1 X111.368 Y137.593 E1.25546
G1 X110.697 Y137.398 E0.02190
G1 X110.113 Y137.016 E0.02190
G1 X100.186 Y127.671 E0.42745
G1 X99.834 Y127.209 E0.01823
G1 X99.605 Y126.678 E0.01811
G1 X93.762 Y105.752 E0.68122
G1 X93.720 Y94.591 E0.34996
G1 X93.788 Y94.029 E0.01775
G1 X102.257 Y71.552 E0.75311
G1 X102.670 Y70.858 E0.02532
G1 X103.358 Y70.318 E0.02743
; printing object tlacitko_spodek.stl id:2 copy 7
;WIPE_START
G1 F8640.000
G1 X104.306 Y70.032 E-0.22867
G1 X106.607 Y70.030 E-0.53133
;WIPE_END
G1 E-0.04000 F2100.000
G1 Z0.600 F10800.000
G1 X158.075 Y110.713
G1 Z0.200
G1 E0.80000 F2100.000
;TYPE:Support material
G1 F1200.000
G1 X158.075 Y100.000 E0.33592
G1 X158.829 Y100.000 E0.02365
G1 X158.829 Y110.544 E0.33060
G1 X159.583 Y110.544 E0.02365
G1 X159.583 Y100.000 E0.33060
G1 X160.337 Y100.000 E0.02365
G1 X160.337 Y110.544 E0.33060
G1 X161.091 Y110.544 E0.02365
G1 X161.091 Y100.000 E0.33060
G1 X161.845 Y100.000 E0.02365
G1 X161.845 Y110.544 E0.33060
G1 X162.506 Y110.544 E0.02071
G1 X162.466 Y109.850 E0.02179
G1 X162.507 Y109.211 E0.02007
G1 X162.599 Y108.721 E0.01565
G1 X162.599 Y100.000 E0.27344
G1 X163.354 Y100.000 E0.02365
G1 X163.354 Y106.931 E0.21732
G1 X163.521 Y106.676 E0.00955
G1 X163.921 Y106.193 E0.01967
G1 X164.108 Y106.014 E0.00813
G1 X164.108 Y100.000 E0.18857
G1 X164.862 Y100.000 E0.02365
G1 X164.862 Y105.398 E0.16926
G1 X165.010 Y105.297 E0.00562
G1 X165.616 Y104.970 E0.02160
G1 X165.616 Y100.000 E0.15583
G1 X166.370 Y100.000 E0.02365
G1 X166.370 Y104.694 E0.14718
G1 X166.856 Y104.570 E0.01571
G1 X167.124 Y104.534 E0.00850
G1 X167.124 Y100.000 E0.14218
G1 X167.879 Y100.000 E0.02365
G1 X167.879 Y104.652 E0.14586
;WIPE_START
G1 F8640.000
G1 X167.879 Y101.360 E-0.76000
;WIPE_END
G1 E-0.04000 F2100.000
G1 Z0.600 F10800.000
G1 X167.879 Y119.942
M73 Q0 S63
G1 Z0.200
G1 E0.80000 F2100.000
G1 F1200.000
G1 X167.879 Y115.290 E0.14586
G1 X168.218 Y115.289 E0.01064
G1 X168.633 Y115.238 E0.01310
G1 X168.633 Y119.772 E0.14218
G1 X169.387 Y119.772 E0.02365
G1 X169.387 Y115.078 E0.14719
G1 X169.570 Y115.028 E0.00595
G1 X170.141 Y114.802 E0.01926
G1 X170.141 Y119.772 E0.15583
G1 X170.895 Y119.772 E0.02365
G1 X170.895 Y114.374 E0.16926
G1 X171.326 Y114.059 E0.01673
G1 X171.649 Y113.758 E0.01385
G1 X171.649 Y119.772 E0.18856
G1 X172.404 Y119.772 E0.02365
G1 X172.404 Y112.841 E0.21732
G1 X172.632 Y112.476 E0.01349
G1 X172.911 Y111.882 E0.02060
G1 X173.121 Y111.238 E0.02122
G1 X173.158 Y111.050 E0.00600
G1 X173.158 Y119.772 E0.27347
G1 X173.912 Y119.772 E0.02365
G1 X173.912 Y109.228 E0.33060
G1 X174.666 Y109.228 E0.02365
G1 X174.666 Y119.772 E0.33060
G1 X175.420 Y119.772 E0.02365
G1 X175.420 Y109.228 E0.33060
G1 X176.174 Y109.228 E0.02365
G1 X176.174 Y119.772 E0.33060
G1 X176.928 Y119.772 E0.02365
G1 X176.928 Y109.228 E0.33060
G1 X177.683 Y109.228 E0.02365
G1 X177.683 Y119.942 E0.33592
;WIPE_START
G1 F8640.000
G1 X177.683 Y116.650 E-0.76000
;WIPE_END
G1 E-0.04000 F2100.000
G1 Z0.600 F10800.000
G1 X170.949 Y112.769
G1 Z0.200
G1 E0.80000 F2100.000
;TYPE:Perimeter
G1 F1200.000
G1 X170.565 Y113.129 E0.01649
G1 X170.131 Y113.444 E0.01682
G1 X169.673 Y113.696 E0.01638
G1 X169.181 Y113.891 E0.01657
G1 X168.663 Y114.024 E0.01679
G1 X168.144 Y114.089 E0.01638
G1 X167.616 Y114.089 E0.01657
G1 X167.085 Y114.022 E0.01679
G1 X166.578 Y113.892 E0.01638
G1 X166.087 Y113.697 E0.01658
G1 X165.623 Y113.443 E0.01658
G1 X165.195 Y113.132 E0.01657
G1 X164.805 Y112.765 E0.01679
G1 X164.472 Y112.363 E0.01638
G1 X164.189 Y111.916 E0.01658
G1 X163.963 Y111.438 E0.01658
G1 X163.800 Y110.935 E0.01657
G1 X163.700 Y110.409 E0.01679
G1 X163.667 Y109.888 E0.01638
G1 X163.700 Y109.360 E0.01658
G1 X163.801 Y108.834 E0.01679
G1 X163.962 Y108.337 E0.01638
G1 X164.187 Y107.859 E0.01658
G1 X164.474 Y107.407 E0.01679
G1 X164.809 Y107.003 E0.01645
G1 X165.192 Y106.642 E0.01650
G1 X165.626 Y106.328 E0.01679
G1 X166.084 Y106.076 E0.01640
G1 X166.576 Y105.881 E0.01658
G1 X167.088 Y105.749 E0.01657
G1 X167.612 Y105.683 E0.01657
G1 X168.146 Y105.683 E0.01675
G1 X168.670 Y105.750 E0.01658
G1 X169.177 Y105.880 E0.01640
G1 X169.674 Y106.076 E0.01675
G1 X170.137 Y106.331 E0.01657
G1 X170.564 Y106.642 E0.01657
G1 X170.950 Y107.004 E0.01658
G1 X171.283 Y107.407 E0.01640
G1 X171.570 Y107.858 E0.01676
G1 X171.794 Y108.336 E0.01657
G1 X171.958 Y108.839 E0.01657
G1 X172.057 Y109.358 E0.01657
G1 X172.090 Y109.880 E0.01640
G1 X172.057 Y110.414 E0.01677
G1 X171.956 Y110.938 E0.01674
G1 X171.795 Y111.436 E0.01640
G1 X171.570 Y111.914 E0.01657
G1 X171.283 Y112.365 E0.01675
G1 X170.987 Y112.723 E0.01458
G1 X171.277 Y112.963 F10800.000
;TYPE:External perimeter
G1 F1200.000
G1 X170.806 Y113.421 E0.02059
G1 X170.333 Y113.763 E0.01831
G1 X169.834 Y114.038 E0.01786
G1 X169.298 Y114.250 E0.01807
G1 X168.733 Y114.395 E0.01828
G1 X168.168 Y114.466 E0.01786
G1 X167.592 Y114.466 E0.01807
G1 X167.014 Y114.393 E0.01828
G1 X166.462 Y114.251 E0.01786
G1 X165.926 Y114.039 E0.01807
G1 X165.421 Y113.762 E0.01807
G1 X164.955 Y113.423 E0.01807
G1 X164.530 Y113.024 E0.01828
G1 X164.167 Y112.585 E0.01786
G1 X163.858 Y112.098 E0.01807
G1 X163.612 Y111.577 E0.01807
G1 X163.434 Y111.029 E0.01807
G1 X163.325 Y110.456 E0.01828
G1 X163.289 Y109.888 E0.01786
G1 X163.325 Y109.313 E0.01807
G1 X163.435 Y108.740 E0.01828
G1 X163.611 Y108.198 E0.01786
G1 X163.856 Y107.677 E0.01807
G1 X164.169 Y107.185 E0.01828
G1 X164.533 Y106.744 E0.01794
G1 X164.952 Y106.351 E0.01799
G1 X165.423 Y106.009 E0.01828
G1 X165.923 Y105.734 E0.01788
G1 X166.459 Y105.522 E0.01806
G1 X167.017 Y105.378 E0.01806
G1 X167.588 Y105.306 E0.01806
G1 X168.170 Y105.306 E0.01824
G1 X168.741 Y105.378 E0.01806
G1 X169.294 Y105.520 E0.01788
G1 X169.835 Y105.734 E0.01825
G1 X170.339 Y106.012 E0.01806
G1 X170.805 Y106.351 E0.01806
G1 X171.225 Y106.745 E0.01806
G1 X171.589 Y107.185 E0.01788
G1 X171.901 Y107.676 E0.01825
G1 X172.146 Y108.197 E0.01806
G1 X172.324 Y108.745 E0.01806
G1 X172.432 Y109.311 E0.01806
G1 X172.467 Y109.880 E0.01788
G1 X172.432 Y110.461 E0.01826
G1 X172.322 Y111.032 E0.01823
G1 X172.146 Y111.575 E0.01788
G1 X171.901 Y112.096 E0.01806
G1 X171.589 Y112.587 E0.01824
G1 X171.316 Y112.917 E0.01344
G1 X170.887 Y112.877 F10800.000
;WIPE_START
G1 F8640.000
G1 X170.806 Y113.421 E-0.16542
G1 X170.333 Y113.763 E-0.13485
G1 X169.834 Y114.038 E-0.13156
G1 X169.298 Y114.250 E-0.13305
G1 X168.733 Y114.395 E-0.13459
G1 X168.473 Y114.428 E-0.06053
;WIPE_END
G1 E-0.04000 F2100.000
G1 Z0.600 F10800.000
G1 X169.822 Y106.287
M73 Q1 S63
G1 Z0.200
M73 P1 R63
G1 E0.80000 F2100.000
;TYPE:Solid infill
;WIDTH:0.434808
G1 F1200.000
G1 X170.792 Y107.257 E0.04470
G1 X171.054 Y107.574 E0.01340
G1 X171.321 Y107.995 E0.01625
G1 X171.531 Y108.440 E0.01605
G1 X171.584 Y108.603 E0.00558
G1 X169.156 Y106.176 E0.11187
G1 X168.617 Y106.028 E0.01821
G1 X168.431 Y106.004 E0.00613
G1 X171.765 Y109.339 E0.15366
G1 X171.803 Y109.931 E0.01934
G1 X167.838 Y105.966 E0.18273
G1 X167.630 Y105.966 E0.00679
G1 X167.323 Y106.005 E0.01008
G1 X171.763 Y110.445 E0.20462
G1 X171.669 Y110.906 E0.01532
G1 X166.863 Y106.099 E0.22150
G1 X166.663 Y106.151 E0.00672
G1 X166.446 Y106.237 E0.00761
G1 X171.534 Y111.324 E0.23444
G1 X171.357 Y111.702 E0.01359
G1 X166.065 Y106.409 E0.24389
G1 X165.714 Y106.613 E0.01321
G1 X171.149 Y112.048 E0.25046
G1 X170.914 Y112.367 E0.01292
G1 X165.393 Y106.846 E0.25443
G1 X165.105 Y107.112 E0.01278
G1 X170.652 Y112.660 E0.25563
G1 X170.364 Y112.926 E0.01278
G1 X164.843 Y107.405 E0.25443
G1 X164.608 Y107.724 E0.01292
G1 X170.043 Y113.159 E0.25046
G1 X169.693 Y113.363 E0.01321
G1 X164.400 Y108.070 E0.24389
G1 X164.224 Y108.448 E0.01358
G1 X169.311 Y113.535 E0.23445
G1 X169.094 Y113.621 E0.00761
G1 X168.894 Y113.672 E0.00672
G1 X164.088 Y108.866 E0.22149
G1 X163.994 Y109.327 E0.01532
G1 X168.435 Y113.767 E0.20463
G1 X168.126 Y113.806 E0.01013
G1 X167.920 Y113.806 E0.00674
G1 X163.953 Y109.840 E0.18277
G1 X163.992 Y110.433 E0.01937
G1 X167.326 Y113.767 E0.15365
G1 X167.138 Y113.743 E0.00620
G1 X166.602 Y113.597 E0.01811
G1 X164.173 Y111.168 E0.11192
G1 X164.227 Y111.333 E0.00566
G1 X164.437 Y111.780 E0.01607
G1 X164.702 Y112.196 E0.01608
G1 X164.964 Y112.513 E0.01342
G1 X165.936 Y113.485 E0.04480
; stop printing object tlacitko_spodek.stl id:2 copy 7
; printing object tlacitko_spodek.stl id:2 copy 6
;WIPE_START
G1 F8640.000
G1 X164.964 Y112.513 E-0.31744
G1 X164.702 Y112.196 E-0.09507
G1 X164.437 Y111.780 E-0.11393
G1 X164.227 Y111.333 E-0.11390
G1 X164.173 Y111.168 E-0.04009
G1 X164.417 Y111.412 E-0.07958
;WIPE_END
G1 E-0.04000 F2100.000
G1 Z0.600 F10800.000
G1 X170.089 Y121.791
G1 Z0.200
G1 E0.80000 F2100.000
;TYPE:Support material
;WIDTH:0.42
G1 F1200.000
G1 X170.089 Y117.139 E0.14586
G1 X169.335 Y117.139 E0.02365
G1 X169.335 Y121.674 E0.14218
G1 X169.066 Y121.709 E0.00850
G1 X168.581 Y121.833 E0.01571
G1 X168.581 Y117.139 E0.14718
G1 X167.827 Y117.139 E0.02365
G1 X167.827 Y122.109 E0.15583
G1 X167.220 Y122.436 E0.02160
G1 X167.073 Y122.538 E0.00562
G1 X167.073 Y117.139 E0.16926
G1 X166.319 Y117.139 E0.02365
G1 X166.319 Y123.153 E0.18857
G1 X166.131 Y123.332 E0.00813
G1 X165.731 Y123.816 E0.01967
G1 X165.564 Y124.070 E0.00955
G1 X165.564 Y117.139 E0.21732
G1 X164.810 Y117.139 E0.02365
G1 X164.810 Y125.860 E0.27344
G1 X164.718 Y126.351 E0.01565
G1 X164.677 Y126.989 E0.02007
G1 X164.717 Y127.683 E0.02179
G1 X164.056 Y127.683 E0.02071
G1 X164.056 Y117.139 E0.33060
G1 X163.302 Y117.139 E0.02365
G1 X163.302 Y127.683 E0.33060
G1 X162.548 Y127.683 E0.02365
G1 X162.548 Y117.139 E0.33060
G1 X161.794 Y117.139 E0.02365
G1 X161.794 Y127.683 E0.33060
G1 X161.039 Y127.683 E0.02365
G1 X161.039 Y117.139 E0.33060
G1 X160.285 Y117.139 E0.02365
G1 X160.285 Y127.853 E0.33592
;WIPE_START
G1 F8640.000
G1 X160.285 Y124.561 E-0.76000
;WIPE_END
G1 E-0.04000 F2100.000
G1 Z0.600 F10800.000
G1 X170.089 Y137.081
G1 Z0.200
G1 E0.80000 F2100.000
G1 F1200.000
G1 X170.089 Y132.429 E0.14586
G1 X170.429 Y132.428 E0.01064
G1 X170.844 Y132.377 E0.01310
G1 X170.844 Y136.912 E0.14218
G1 X171.598 Y136.912 E0.02365
G1 X171.598 Y132.217 E0.14719
G1 X171.781 Y132.168 E0.00595
G1 X172.352 Y131.942 E0.01926
G1 X172.352 Y136.912 E0.15583
G1 X173.106 Y136.912 E0.02365
G1 X173.106 Y131.513 E0.16926
G1 X173.537 Y131.199 E0.01673
G1 X173.860 Y130.898 E0.01385
G1 X173.860 Y136.912 E0.18856
G1 X174.614 Y136.912 E0.02365
G1 X174.614 Y129.980 E0.21732
G1 X174.843 Y129.616 E0.01349
G1 X175.122 Y129.021 E0.02060
G1 X175.331 Y128.377 E0.02122
G1 X175.369 Y128.190 E0.00600
G1 X175.369 Y136.912 E0.27347
G1 X176.123 Y136.912 E0.02365
G1 X176.123 Y126.368 E0.33060
G1 X176.877 Y126.368 E0.02365
G1 X176.877 Y136.912 E0.33060
G1 X177.631 Y136.912 E0.02365
G1 X177.631 Y126.368 E0.33060
G1 X178.385 Y126.368 E0.02365
G1 X178.385 Y136.912 E0.33060
G1 X179.139 Y136.912 E0.02365
G1 X179.139 Y126.368 E0.33060
G1 X179.893 Y126.368 E0.02365
G1 X179.893 Y137.081 E0.33592
;WIPE_START
G1 F8640.000
G1 X179.893 Y133.790 E-0.76000
;WIPE_END
G1 E-0.04000 F2100.000
G1 Z0.600 F10800.000
G1 X173.159 Y129.909
G1 Z0.200
G1 E0.80000 F2100.000
;TYPE:Perimeter
G1 F1200.000
G1 X172.776 Y130.269 E0.01649
G1 X172.342 Y130.584 E0.01682
G1 X171.884 Y130.836 E0.01638
G1 X171.392 Y131.030 E0.01657
G1 X170.874 Y131.163 E0.01679
G1 X170.355 Y131.228 E0.01638
G1 X169.827 Y131.229 E0.01657
G1 X169.295 Y131.161 E0.01679
G1 X168.789 Y131.031 E0.01638
G1 X168.297 Y130.837 E0.01658
G1 X167.834 Y130.582 E0.01658
G1 X167.406 Y130.271 E0.01657
G1 X167.016 Y129.905 E0.01679
G1 X166.683 Y129.502 E0.01638
G1 X166.400 Y129.056 E0.01658
G1 X166.174 Y128.577 E0.01658
G1 X166.011 Y128.075 E0.01657
G1 X165.911 Y127.549 E0.01679
G1 X165.878 Y127.027 E0.01638
G1 X165.911 Y126.499 E0.01658
G1 X166.011 Y125.974 E0.01679
M73 P1 R62
G1 X166.173 Y125.477 E0.01638
G1 X166.398 Y124.998 E0.01658
G1 X166.685 Y124.546 E0.01679
G1 X167.019 Y124.142 E0.01645
G1 X167.403 Y123.782 E0.01650
G1 X167.837 Y123.467 E0.01679
G1 X168.295 Y123.215 E0.01640
G1 X168.786 Y123.021 E0.01658
G1 X169.298 Y122.889 E0.01657
G1 X169.823 Y122.822 E0.01657
G1 X170.357 Y122.822 E0.01675
G1 X170.881 Y122.889 E0.01658
G1 X171.388 Y123.019 E0.01640
G1 X171.885 Y123.216 E0.01675
G1 X172.348 Y123.470 E0.01657
G1 X172.775 Y123.781 E0.01657
G1 X173.160 Y124.143 E0.01658
G1 X173.494 Y124.546 E0.01640
G1 X173.780 Y124.997 E0.01676
G1 X174.005 Y125.476 E0.01657
G1 X174.169 Y125.978 E0.01657
G1 X174.268 Y126.498 E0.01657
G1 X174.300 Y127.020 E0.01640
G1 X174.268 Y127.553 E0.01677
G1 X174.167 Y128.078 E0.01674
G1 X174.005 Y128.575 E0.01640
G1 X173.781 Y129.053 E0.01657
G1 X173.494 Y129.504 E0.01675
G1 X173.198 Y129.862 E0.01458
G1 X173.488 Y130.103 F10800.000
;TYPE:External perimeter
G1 F1200.000
G1 X173.017 Y130.560 E0.02059
G1 X172.544 Y130.903 E0.01831
G1 X172.045 Y131.177 E0.01786
G1 X171.509 Y131.390 E0.01807
G1 X170.944 Y131.534 E0.01828
G1 X170.379 Y131.606 E0.01786
G1 X169.803 Y131.606 E0.01807
G1 X169.224 Y131.532 E0.01828
G1 X168.673 Y131.391 E0.01786
G1 X168.137 Y131.179 E0.01807
G1 X167.632 Y130.901 E0.01807
G1 X167.165 Y130.563 E0.01807
G1 X166.741 Y130.163 E0.01828
G1 X166.378 Y129.724 E0.01786
G1 X166.069 Y129.238 E0.01807
G1 X165.823 Y128.716 E0.01807
G1 X165.645 Y128.168 E0.01807
G1 X165.536 Y127.596 E0.01828
G1 X165.500 Y127.027 E0.01786
G1 X165.536 Y126.452 E0.01807
G1 X165.646 Y125.880 E0.01828
G1 X165.822 Y125.338 E0.01786
G1 X166.067 Y124.816 E0.01807
G1 X166.379 Y124.324 E0.01828
G1 X166.744 Y123.883 E0.01794
G1 X167.162 Y123.491 E0.01799
G1 X167.634 Y123.148 E0.01828
G1 X168.134 Y122.873 E0.01788
G1 X168.670 Y122.661 E0.01806
G1 X169.227 Y122.518 E0.01806
G1 X169.799 Y122.445 E0.01806
G1 X170.381 Y122.445 E0.01824
G1 X170.952 Y122.518 E0.01806
G1 X171.504 Y122.660 E0.01788
G1 X172.046 Y122.874 E0.01825
G1 X172.550 Y123.152 E0.01806
G1 X173.016 Y123.490 E0.01806
G1 X173.436 Y123.885 E0.01806
G1 X173.799 Y124.324 E0.01788
G1 X174.111 Y124.815 E0.01825
