; generated by PrusaSlicer 2.3.1+win64 on 2021-05-07 at 12:03:39 UTC

; 

; external perimeters extrusion width = 0.45mm
; perimeters extrusion width = 0.45mm
; infill extrusion width = 0.45mm
; solid infill extrusion width = 0.45mm
; top infill extrusion width = 0.40mm
; support material extrusion width = 0.35mm
; first layer extrusion width = 0.42mm

M73 P0 R21
M73 Q0 S21
M201 X1000 Y1000 Z200 E5000 ; sets maximum accelerations, mm/sec^2
M203 X200 Y200 Z12 E120 ; sets maximum feedrates, mm/sec
M204 P1250 R1250 T1250 ; sets acceleration (P, T) and retract acceleration (R), mm/sec^2
M205 X8.00 Y8.00 Z0.40 E4.50 ; sets the jerk limits, mm/sec
M205 S0 T0 ; sets the minimum extruding and travel feed rate, mm/sec
M107
;TYPE:Custom
M862.3 P "MK3" ; printer model check
M862.1 P0.4 ; nozzle diameter check
M115 U3.9.3 ; tell printer latest fw version
G90 ; use absolute coordinates
M83 ; extruder relative mode
M104 S215 ; set extruder temp
M140 S60 ; set bed temp
M190 S60 ; wait for bed temp
M109 S215 ; wait for extruder temp
G28 W ; home all without mesh bed level
G80 ; mesh bed leveling
G1 Y-3.0 F1000.0 ; go outside print area
G92 E0.0
G1 X60.0 E9.0 F1000.0 ; intro line
G1 X100.0 E12.5 F1000.0 ; intro line
G92 E0.0
M221 S95

; Don't change E values below. Excessive value can damage the printer.
M907 E430 ; set extruder motor current
G21 ; set units to millimeters
G90 ; use absolute coordinates
M83 ; use relative distances for extrusion
M900 K0.05 ; Filament gcode LA 1.5
M900 K30 ; Filament gcode LA 1.0
;LAYER_CHANGE
;Z:0.2
;HEIGHT:0.2
;BEFORE_LAYER_CHANGE
G92 E0.0
;0.2


G1 E-0.80000 F2100.000
G1 Z0.400 F10800.000
;AFTER_LAYER_CHANGE
;0.2
G1 X119.035 Y90.654
G1 Z0.200
G1 E0.80000 F2100.000
M204 S1000
;TYPE:Skirt
;WIDTH:0.42
G1 F1200.000
G1 X119.901 Y90.448 E0.02790
G1 X127.546 Y90.276 E0.23977
G1 X163.553 Y91.004 E1.12920
G1 X164.073 Y91.076 E0.01645
G1 X164.561 Y91.258 E0.01633
G1 X165.106 Y91.637 E0.02083
G1 X174.932 Y100.885 E0.42307
G1 X175.446 Y101.598 E0.02755
G1 X175.609 Y102.068 E0.01562
G1 X175.671 Y102.563 E0.01562
G1 X175.671 Y113.326 E0.33747
G1 X175.606 Y113.873 E0.01728
G1 X175.417 Y114.391 E0.01728
G1 X175.049 Y114.925 E0.02036
G1 X174.546 Y115.343 E0.02048
G1 X173.953 Y115.606 E0.02036
G1 X173.307 Y115.699 E0.02048
G1 X163.463 Y115.699 E0.30863
G1 X122.220 Y115.141 E1.29327
M73 P1 R21
M73 Q1 S21
G1 X120.365 Y114.940 E0.05850
G1 X119.687 Y114.718 E0.02237
G1 X116.154 Y112.059 E0.13864
G1 X113.742 Y109.776 E0.10415
G1 X113.239 Y108.953 E0.03024
G1 X113.099 Y108.154 E0.02543
G1 X113.099 Y97.414 E0.33674
G1 X113.213 Y96.710 E0.02237
G1 X113.435 Y96.218 E0.01692
G1 X113.763 Y95.789 E0.01692
G1 X118.349 Y91.120 E0.20519
G1 X118.986 Y90.687 E0.02414
; printing object tlacitko_spodek.stl id:1 copy 0
;WIPE_START
G1 F8640.000
G1 X119.901 Y90.448 E-0.21847
G1 X122.246 Y90.395 E-0.54153
;WIPE_END
G1 E-0.04000 F2100.000
G1 Z0.600 F10800.000
G1 X153.686 Y104.094
G1 Z0.200
G1 E0.80000 F2100.000
;TYPE:Support material
G1 F1200.000
G1 X153.686 Y93.380 E0.33592
G1 X154.440 Y93.380 E0.02365
G1 X154.440 Y103.924 E0.33060
G1 X155.194 Y103.924 E0.02365
G1 X155.194 Y93.380 E0.33060
G1 X155.948 Y93.380 E0.02365
G1 X155.948 Y103.924 E0.33060
G1 X156.703 Y103.924 E0.02365
G1 X156.703 Y93.380 E0.33060
G1 X157.457 Y93.380 E0.02365
G1 X157.457 Y103.924 E0.33060
G1 X158.117 Y103.924 E0.02071
G1 X158.078 Y103.230 E0.02179
G1 X158.119 Y102.592 E0.02007
G1 X158.211 Y102.101 E0.01565
G1 X158.211 Y93.380 E0.27344
G1 X158.965 Y93.380 E0.02365
G1 X158.965 Y100.311 E0.21732
G1 X159.132 Y100.056 E0.00955
G1 X159.532 Y99.573 E0.01967
G1 X159.719 Y99.394 E0.00813
G1 X159.719 Y93.380 E0.18857
G1 X160.473 Y93.380 E0.02365
G1 X160.473 Y98.778 E0.16926
G1 X160.621 Y98.677 E0.00562
G1 X161.228 Y98.350 E0.02160
G1 X161.228 Y93.380 E0.15583
G1 X161.982 Y93.380 E0.02365
G1 X161.982 Y98.074 E0.14718
G1 X162.467 Y97.950 E0.01571
G1 X162.736 Y97.915 E0.00850
G1 X162.736 Y93.380 E0.14218
G1 X163.490 Y93.380 E0.02365
G1 X163.490 Y98.032 E0.14586
;WIPE_START
G1 F8640.000
G1 X163.490 Y94.741 E-0.76000
;WIPE_END
G1 E-0.04000 F2100.000
G1 Z0.600 F10800.000
G1 X163.490 Y113.322
G1 Z0.200
G1 E0.80000 F2100.000
G1 F1200.000
G1 X163.490 Y108.670 E0.14586
G1 X163.829 Y108.669 E0.01064
G1 X164.244 Y108.618 E0.01310
G1 X164.244 Y113.152 E0.14218
G1 X164.998 Y113.152 E0.02365
G1 X164.998 Y108.458 E0.14719
G1 X165.181 Y108.409 E0.00595
G1 X165.752 Y108.183 E0.01926
G1 X165.752 Y113.152 E0.15583
G1 X166.507 Y113.152 E0.02365
G1 X166.507 Y107.754 E0.16926
G1 X166.938 Y107.440 E0.01673
G1 X167.261 Y107.138 E0.01385
G1 X167.261 Y113.152 E0.18856
G1 X168.015 Y113.152 E0.02365
G1 X168.015 Y106.221 E0.21732
G1 X168.243 Y105.857 E0.01349
G1 X168.522 Y105.262 E0.02060
G1 X168.732 Y104.618 E0.02122
G1 X168.769 Y104.431 E0.00600
G1 X168.769 Y113.152 E0.27347
M73 P2 R21
M73 Q2 S21
G1 X169.523 Y113.152 E0.02365
G1 X169.523 Y102.608 E0.33060
G1 X170.277 Y102.608 E0.02365
G1 X170.277 Y113.152 E0.33060
G1 X171.032 Y113.152 E0.02365
G1 X171.032 Y102.608 E0.33060
G1 X171.786 Y102.608 E0.02365
G1 X171.786 Y113.152 E0.33060
G1 X172.540 Y113.152 E0.02365
G1 X172.540 Y102.608 E0.33060
G1 X173.294 Y102.608 E0.02365
G1 X173.294 Y113.322 E0.33592
;WIPE_START
G1 F8640.000
G1 X173.294 Y110.031 E-0.76000
;WIPE_END
G1 E-0.04000 F2100.000
G1 Z0.600 F10800.000
G1 X166.560 Y106.150
G1 Z0.200
G1 E0.80000 F2100.000
;TYPE:Perimeter
G1 F1200.000
G1 X166.177 Y106.510 E0.01649
G1 X165.742 Y106.825 E0.01682
G1 X165.284 Y107.076 E0.01638
G1 X164.793 Y107.271 E0.01657
G1 X164.274 Y107.404 E0.01679
G1 X163.756 Y107.469 E0.01638
G1 X163.227 Y107.470 E0.01657
G1 X162.696 Y107.402 E0.01679
G1 X162.190 Y107.272 E0.01638
G1 X161.698 Y107.078 E0.01658
G1 X161.235 Y106.823 E0.01658
G1 X160.807 Y106.512 E0.01657
G1 X160.417 Y106.146 E0.01679
G1 X160.084 Y105.743 E0.01638
G1 X159.800 Y105.297 E0.01658
G1 X159.575 Y104.818 E0.01658
G1 X159.411 Y104.315 E0.01657
G1 X159.311 Y103.790 E0.01679
G1 X159.279 Y103.268 E0.01638
G1 X159.312 Y102.740 E0.01658
G1 X159.412 Y102.215 E0.01679
G1 X159.574 Y101.718 E0.01638
G1 X159.798 Y101.239 E0.01658
G1 X160.086 Y100.787 E0.01679
G1 X160.420 Y100.383 E0.01645
G1 X160.804 Y100.023 E0.01650
G1 X161.237 Y99.708 E0.01679
G1 X161.696 Y99.456 E0.01640
G1 X162.187 Y99.261 E0.01658
G1 X162.699 Y99.130 E0.01657
G1 X163.223 Y99.063 E0.01657
G1 X163.757 Y99.063 E0.01675
G1 X164.282 Y99.130 E0.01658
G1 X164.788 Y99.260 E0.01640
G1 X165.285 Y99.457 E0.01675
G1 X165.748 Y99.711 E0.01657
G1 X166.176 Y100.022 E0.01657
G1 X166.561 Y100.384 E0.01658
G1 X166.894 Y100.787 E0.01640
G1 X167.181 Y101.238 E0.01676
G1 X167.406 Y101.716 E0.01657
G1 X167.569 Y102.219 E0.01657
G1 X167.668 Y102.738 E0.01657
G1 X167.701 Y103.260 E0.01640
G1 X167.668 Y103.794 E0.01677
G1 X167.568 Y104.318 E0.01674
G1 X167.406 Y104.816 E0.01640
G1 X167.181 Y105.294 E0.01657
G1 X166.895 Y105.745 E0.01675
G1 X166.598 Y106.103 E0.01458
G1 X166.889 Y106.344 F10800.000
;TYPE:External perimeter
G1 F1200.000
G1 X166.417 Y106.801 E0.02059
G1 X165.944 Y107.144 E0.01831
G1 X165.445 Y107.418 E0.01786
G1 X164.910 Y107.631 E0.01807
G1 X164.345 Y107.775 E0.01828
G1 X163.780 Y107.846 E0.01786
G1 X163.203 Y107.847 E0.01807
G1 X162.625 Y107.773 E0.01828
G1 X162.073 Y107.631 E0.01786
G1 X161.537 Y107.419 E0.01807
G1 X161.032 Y107.142 E0.01807
G1 X160.566 Y106.803 E0.01807
G1 X160.141 Y106.404 E0.01828
G1 X159.778 Y105.965 E0.01786
G1 X159.469 Y105.479 E0.01807
G1 X159.224 Y104.957 E0.01807
G1 X159.045 Y104.409 E0.01807
G1 X158.936 Y103.837 E0.01828
G1 X158.901 Y103.268 E0.01786
G1 X158.937 Y102.693 E0.01807
G1 X159.046 Y102.121 E0.01828
G1 X159.222 Y101.579 E0.01786
G1 X159.467 Y101.057 E0.01807
G1 X159.780 Y100.565 E0.01828
G1 X160.145 Y100.124 E0.01794
G1 X160.563 Y99.732 E0.01799
G1 X161.035 Y99.389 E0.01828
G1 X161.535 Y99.114 E0.01788
G1 X162.070 Y98.902 E0.01806
G1 X162.628 Y98.759 E0.01806
G1 X163.199 Y98.686 E0.01806
G1 X163.781 Y98.686 E0.01824
G1 X164.353 Y98.759 E0.01806
G1 X164.905 Y98.901 E0.01788
G1 X165.446 Y99.115 E0.01825
G1 X165.951 Y99.392 E0.01806
G1 X166.417 Y99.731 E0.01806
G1 X166.836 Y100.126 E0.01806
G1 X167.200 Y100.565 E0.01788
G1 X167.512 Y101.056 E0.01825
G1 X167.757 Y101.577 E0.01806
G1 X167.935 Y102.125 E0.01806
G1 X168.043 Y102.691 E0.01806
G1 X168.079 Y103.260 E0.01788
G1 X168.043 Y103.841 E0.01826
G1 X167.934 Y104.413 E0.01823
G1 X167.757 Y104.955 E0.01788
G1 X167.512 Y105.476 E0.01806
G1 X167.200 Y105.967 E0.01824
G1 X166.927 Y106.297 E0.01344
G1 X166.498 Y106.257 F10800.000
;WIPE_START
G1 F8640.000
G1 X166.417 Y106.801 E-0.16542
G1 X165.944 Y107.144 E-0.13485
G1 X165.445 Y107.418 E-0.13156
G1 X164.910 Y107.631 E-0.13305
G1 X164.345 Y107.775 E-0.13459
G1 X164.085 Y107.808 E-0.06053
;WIPE_END
G1 E-0.04000 F2100.000
G1 Z0.600 F10800.000
G1 X165.433 Y99.667
G1 Z0.200
G1 E0.80000 F2100.000
;TYPE:Solid infill
;WIDTH:0.434808
G1 F1200.000
G1 X166.403 Y100.637 E0.04470
G1 X166.665 Y100.954 E0.01340
G1 X166.933 Y101.375 E0.01625
G1 X167.142 Y101.821 E0.01605
G1 X167.195 Y101.984 E0.00558
G1 X164.768 Y99.556 E0.11187
G1 X164.229 Y99.408 E0.01821
G1 X164.042 Y99.385 E0.00613
G1 X167.377 Y102.719 E0.15366
G1 X167.415 Y103.311 E0.01934
G1 X163.449 Y99.346 E0.18273
G1 X163.241 Y99.346 E0.00679
G1 X162.934 Y99.385 E0.01008
G1 X167.374 Y103.825 E0.20462
G1 X167.281 Y104.286 E0.01532
G1 X162.474 Y99.479 E0.22150
M73 P2 R20
G1 X162.275 Y99.531 E0.00672
G1 X162.058 Y99.617 E0.00761
G1 X167.145 Y104.704 E0.23444
G1 X166.968 Y105.082 E0.01359
G1 X161.676 Y99.790 E0.24389
G1 X161.326 Y99.993 E0.01321
G1 X166.761 Y105.428 E0.25046
G1 X166.526 Y105.747 E0.01292
G1 X161.005 Y100.226 E0.25443
G1 X160.716 Y100.493 E0.01278
G1 X166.264 Y106.040 E0.25563
G1 X165.976 Y106.306 E0.01278
G1 X160.455 Y100.785 E0.25443
G1 X160.219 Y101.104 E0.01292
G1 X165.654 Y106.539 E0.25046
G1 X165.304 Y106.743 E0.01321
G1 X160.012 Y101.450 E0.24389
G1 X159.835 Y101.828 E0.01358
G1 X164.923 Y106.916 E0.23445
M73 Q3 S21
G1 X164.705 Y107.002 E0.00761
G1 X164.506 Y107.053 E0.00672
G1 X159.699 Y102.246 E0.22149
M73 P3 R20
G1 X159.606 Y102.707 E0.01532
G1 X164.046 Y107.148 E0.20463
G1 X163.738 Y107.187 E0.01013
G1 X163.531 Y107.187 E0.00674
G1 X159.565 Y103.220 E0.18277
G1 X159.604 Y103.814 E0.01937
G1 X162.938 Y107.148 E0.15365
G1 X162.749 Y107.124 E0.00620
G1 X162.213 Y106.977 E0.01811
G1 X159.785 Y104.549 E0.11192
G1 X159.838 Y104.714 E0.00566
G1 X160.048 Y105.160 E0.01607
G1 X160.313 Y105.576 E0.01608
G1 X160.575 Y105.894 E0.01342
G1 X161.548 Y106.866 E0.04480
; stop printing object tlacitko_spodek.stl id:1 copy 0
; printing object joystick_prostredek.stl id:0 copy 0
;WIPE_START
G1 F8640.000
G1 X160.575 Y105.894 E-0.31744
G1 X160.313 Y105.576 E-0.09507
G1 X160.048 Y105.160 E-0.11393
G1 X159.838 Y104.714 E-0.11390
G1 X159.785 Y104.549 E-0.04009
G1 X160.028 Y104.792 E-0.07958
;WIPE_END
G1 E-0.04000 F2100.000
G1 Z0.600 F10800.000
G1 X146.885 Y106.130
G1 Z0.200
G1 E0.80000 F2100.000
;TYPE:Perimeter
;WIDTH:0.42
G1 F1200.000
G1 X141.311 Y106.130 E0.17477
G1 X141.311 Y100.556 E0.17477
G1 X146.885 Y100.556 E0.17477
G1 X146.885 Y106.070 E0.17289
G1 X146.508 Y105.753 F10800.000
;TYPE:External perimeter
G1 F1200.000
G1 X141.688 Y105.753 E0.15113
G1 X141.688 Y100.933 E0.15113
G1 X146.508 Y100.933 E0.15113
G1 X146.508 Y105.693 E0.14925
G1 X146.612 Y106.139 F10800.000
;WIPE_START
G1 F8640.000
G1 X143.217 Y105.734 E-0.76000
;WIPE_END
G1 E-0.04000 F2100.000
G1 Z0.600 F10800.000
M73 Q3 S20
G1 X150.786 Y109.933
G1 Z0.200
G1 E0.80000 F2100.000
;TYPE:Perimeter
G1 F1200.000
G1 X150.688 Y110.030 E0.00431
G1 X150.554 Y110.056 E0.00429
G1 X137.642 Y110.056 E0.40483
G1 X137.552 Y110.046 E0.00285
G1 X137.469 Y110.005 E0.00290
G1 X137.411 Y109.933 E0.00290
G1 X137.385 Y109.799 E0.00429
G1 X137.385 Y96.887 E0.40483
G1 X137.395 Y96.797 E0.00285
G1 X137.436 Y96.713 E0.00290
G1 X137.508 Y96.655 E0.00290
G1 X137.642 Y96.630 E0.00429
G1 X150.554 Y96.630 E0.40483
G1 X150.644 Y96.640 E0.00285
G1 X150.728 Y96.680 E0.00290
G1 X150.786 Y96.753 E0.00290
G1 X150.811 Y96.887 E0.00429
G1 X150.802 Y109.876 E0.40725
G1 X151.127 Y110.098 F10800.000
;TYPE:External perimeter
G1 F1200.000
G1 X151.057 Y110.209 E0.00412
G1 X150.964 Y110.302 E0.00412
G1 X150.853 Y110.372 E0.00412
G1 X150.729 Y110.415 E0.00412
G1 X150.575 Y110.433 E0.00485
G1 X137.621 Y110.433 E0.40616
G1 X137.467 Y110.415 E0.00485
G1 X137.343 Y110.372 E0.00412
G1 X137.232 Y110.302 E0.00412
G1 X137.139 Y110.209 E0.00412
G1 X137.069 Y110.098 E0.00412
G1 X137.026 Y109.974 E0.00412
G1 X137.008 Y109.820 E0.00485
G1 X137.008 Y96.866 E0.40616
G1 X137.026 Y96.712 E0.00485
G1 X137.069 Y96.588 E0.00412
G1 X137.139 Y96.477 E0.00412
G1 X137.232 Y96.384 E0.00412
G1 X137.343 Y96.314 E0.00412
G1 X137.467 Y96.270 E0.00412
G1 X137.621 Y96.253 E0.00485
G1 X150.575 Y96.253 E0.40616
G1 X150.729 Y96.270 E0.00485
G1 X150.853 Y96.314 E0.00412
G1 X150.964 Y96.384 E0.00412
G1 X151.057 Y96.477 E0.00412
G1 X151.127 Y96.588 E0.00412
G1 X151.171 Y96.712 E0.00412
G1 X151.188 Y96.866 E0.00485
G1 X151.188 Y109.820 E0.40616
G1 X151.147 Y110.041 E0.00706
G1 X150.997 Y110.117 F10800.000
;WIPE_START
G1 F8640.000
G1 X151.057 Y110.209 E-0.04399
G1 X150.964 Y110.302 E-0.03037
G1 X150.853 Y110.372 E-0.03037
G1 X150.729 Y110.415 E-0.03037
G1 X150.575 Y110.433 E-0.03572
G1 X148.024 Y110.433 E-0.58917
;WIPE_END
G1 E-0.04000 F2100.000
G1 Z0.600 F10800.000
G1 X149.862 Y96.753
G1 Z0.200
G1 E0.80000 F2100.000
;TYPE:Solid infill
;WIDTH:0.422875
G1 F1200.000
G1 X150.528 Y97.419 E0.02976
G1 X150.528 Y97.956 E0.01698
G1 X149.494 Y96.922 E0.04620
G1 X148.956 Y96.922 E0.01699
G1 X150.528 Y98.493 E0.07023
G1 X150.528 Y99.031 E0.01698
G1 X148.419 Y96.921 E0.09426
G1 X147.881 Y96.921 E0.01699
G1 X150.528 Y99.568 E0.11828
G1 X150.528 Y100.105 E0.01698
G1 X147.343 Y96.920 E0.14231
G1 X146.805 Y96.920 E0.01699
G1 X150.528 Y100.643 E0.16634
G1 X150.528 Y101.180 E0.01698
G1 X146.268 Y96.919 E0.19036
G1 X145.730 Y96.919 E0.01699
G1 X150.528 Y101.717 E0.21439
M73 P4 R20
M73 Q4 S20
G1 X150.528 Y102.255 E0.01698
G1 X145.192 Y96.919 E0.23842
G1 X144.654 Y96.918 E0.01699
G1 X150.528 Y102.792 E0.26245
G1 X150.528 Y103.329 E0.01698
G1 X144.117 Y96.918 E0.28647
G1 X143.579 Y96.917 E0.01699
G1 X150.528 Y103.867 E0.31050
G1 X150.528 Y104.404 E0.01698
G1 X147.168 Y101.044 E0.15014
G1 X147.168 Y101.581 E0.01698
G1 X150.528 Y104.941 E0.15014
G1 X150.528 Y105.479 E0.01698
G1 X147.168 Y102.119 E0.15014
G1 X147.168 Y102.656 E0.01698
G1 X150.528 Y106.016 E0.15014
G1 X150.528 Y106.553 E0.01698
G1 X147.168 Y103.193 E0.15014
G1 X147.168 Y103.731 E0.01698
G1 X150.528 Y107.091 E0.15014
G1 X150.528 Y107.628 E0.01698
G1 X147.168 Y104.268 E0.15014
G1 X147.168 Y104.805 E0.01698
G1 X150.528 Y108.165 E0.15014
G1 X150.528 Y108.703 E0.01698
G1 X147.168 Y105.343 E0.15014
G1 X147.168 Y105.880 E0.01698
G1 X150.528 Y109.240 E0.15014
G1 X150.528 Y109.773 E0.01683
G1 X147.163 Y106.413 E0.15023
G1 X146.626 Y106.413 E0.01698
G1 X149.986 Y109.773 E0.15014
G1 X149.449 Y109.773 E0.01698
G1 X146.089 Y106.413 E0.15014
G1 X145.551 Y106.413 E0.01698
G1 X148.912 Y109.773 E0.15014
G1 X148.374 Y109.773 E0.01698
G1 X145.014 Y106.413 E0.15014
G1 X144.477 Y106.413 E0.01698
G1 X147.837 Y109.773 E0.15014
G1 X147.300 Y109.773 E0.01698
G1 X143.939 Y106.413 E0.15014
G1 X143.402 Y106.413 E0.01698
G1 X146.762 Y109.773 E0.15014
G1 X146.225 Y109.773 E0.01698
G1 X142.865 Y106.413 E0.15014
G1 X142.327 Y106.413 E0.01698
G1 X145.688 Y109.773 E0.15014
G1 X145.150 Y109.773 E0.01698
G1 X141.620 Y106.243 E0.15772
;WIPE_START
G1 F8640.000
G1 X143.948 Y108.570 E-0.76000
;WIPE_END
G1 E-0.04000 F2100.000
G1 Z0.600 F10800.000
G1 X146.567 Y100.443
G1 Z0.200
G1 E0.80000 F2100.000
G1 F1200.000
G1 X143.041 Y96.917 E0.15753
G1 X142.503 Y96.916 E0.01699
G1 X145.860 Y100.273 E0.14996
G1 X145.322 Y100.273 E0.01698
G1 X141.966 Y96.916 E0.14998
G1 X141.428 Y96.916 E0.01699
G1 X144.785 Y100.273 E0.15000
G1 X144.248 Y100.273 E0.01698
G1 X140.890 Y96.915 E0.15002
G1 X140.352 Y96.915 E0.01699
G1 X143.710 Y100.273 E0.15004
G1 X143.173 Y100.273 E0.01698
G1 X139.815 Y96.914 E0.15006
G1 X139.277 Y96.914 E0.01699
G1 X142.636 Y100.273 E0.15008
G1 X142.098 Y100.273 E0.01698
